;FLAVOR:Marlin
;TIME:6184
;Filament used: 3.35758m
;Layer height: 0.2
;MINX:158.902
;MINY:124.999
;MINZ:0.2
;MAXX:221.086
;MAXY:204.7
;MAXZ:11.4
;TARGET_MACHINE.NAME:Creality Ender-5 Plus
;Generated with Cura_SteamEngine 5.8.1
M140 S65
M105
M190 S65
M104 S200
M105
M109 S200
M82 ;absolute extrusion mode
M201 X500.00 Y500.00 Z100.00 E5000.00 ;Setup machine max acceleration
M203 X500.00 Y500.00 Z10.00 E50.00 ;Setup machine max feedrate
M204 P500.00 R1000.00 T500.00 ;Setup Print/Retract/Travel acceleration
M205 X8.00 Y8.00 Z0.40 E5.00 ;Setup Jerk
M220 S100 ;Reset Feedrate
M221 S100 ;Reset Flowrate

G28 ;Home
G29 ;Auto bed level

G92 E0 ;Reset Extruder
G1 Z2.0 F3000 ;Move Z Axis up
G1 X10.1 Y20 Z0.28 F5000.0 ;Move to start position
G1 X10.1 Y200.0 Z0.28 F1500.0 E15 ;Draw the first line
G1 X10.4 Y200.0 Z0.28 F5000.0 ;Move to side a little
G1 X10.4 Y20 Z0.28 F1500.0 E30 ;Draw the second line
G92 E0 ;Reset Extruder
G1 Z2.0 F3000 ;Move Z Axis up

G92 E0
G92 E0
G1 F1500 E-6.5
;LAYER_COUNT:57
;LAYER:0
M107
G0 F6000 X160.593 Y131.556 Z0.2
;TYPE:SKIRT
G1 F1500 E0
G1 F1200 X161.192 Y130.825 E0.03143
G1 X161.653 Y130.355 E0.05333
G1 X162.232 Y129.852 E0.07884
G1 X162.962 Y129.313 E0.10902
G1 X163.898 Y128.92 E0.14279
G1 X163.91 Y128.661 E0.15141
G1 X164.127 Y127.778 E0.18165
G1 X164.643 Y126.781 E0.21899
G1 X165.398 Y126.078 E0.2533
G1 X166.39 Y125.487 E0.29171
G1 X167.43 Y125.32 E0.32674
G1 X169.689 Y125.3 E0.40188
G1 X170.612 Y125.525 E0.43348
G1 X171.617 Y126.045 E0.47111
G1 X172.32 Y126.8 E0.50542
G1 X172.871 Y127.726 E0.54126
G1 X172.952 Y128.043 E0.55214
G1 X173.964 Y127.759 E0.5871
G1 X175.091 Y127.677 E0.62469
G1 X177.017 Y128.219 E0.69123
G1 X177.123 Y127.78 E0.70626
G1 X177.643 Y126.778 E0.7438
G1 X178.398 Y126.078 E0.77805
G1 X179.39 Y125.487 E0.81645
G1 X180.43 Y125.32 E0.85149
G1 X182.689 Y125.3 E0.92662
G1 X183.612 Y125.525 E0.95822
G1 X184.617 Y126.045 E0.99586
G1 X185.32 Y126.8 E1.03017
G1 X185.911 Y127.791 E1.06855
G1 X186.073 Y128.771 E1.10158
G1 X186.086 Y129.225 E1.11669
G1 X186.321 Y129.32 E1.12512
G1 X186.997 Y129.663 E1.15033
G1 X187.577 Y130.022 E1.17302
G1 X187.986 Y130.322 E1.18989
G1 X188.83 Y131.077 E1.22755
G1 X189.284 Y130.523 E1.25138
G1 X189.813 Y129.991 E1.27633
G1 X190.41 Y129.483 E1.3024
G1 X191.055 Y129.01 E1.32901
G1 X191.988 Y128.619 E1.36265
G1 X192 Y128.36 E1.37128
G1 X192.217 Y127.477 E1.40152
G1 X192.733 Y126.48 E1.43886
G1 X193.488 Y125.777 E1.47317
G1 X194.48 Y125.186 E1.51157
G1 X195.52 Y125.019 E1.54661
G1 X197.779 Y124.999 E1.62175
G1 X198.702 Y125.224 E1.65334
G1 X199.707 Y125.744 E1.69098
G1 X200.41 Y126.499 E1.72529
G1 X201.001 Y127.49 E1.76367
G1 X201.083 Y127.988 E1.78046
G1 X201.718 Y127.81 E1.80239
G1 X202.845 Y127.728 E1.83997
G1 X205.006 Y128.336 E1.91464
G1 X205.217 Y127.477 E1.94406
G1 X205.733 Y126.48 E1.9814
G1 X206.488 Y125.777 E2.01571
G1 X207.48 Y125.186 E2.05411
G1 X208.52 Y125.019 E2.08915
G1 X210.779 Y124.999 E2.16429
G1 X211.702 Y125.224 E2.19588
G1 X212.707 Y125.744 E2.23352
G1 X213.41 Y126.499 E2.26783
G1 X214.001 Y127.49 E2.30621
G1 X214.163 Y128.47 E2.33925
G1 X214.175 Y128.9 E2.35355
G1 X215.066 Y129.349 E2.38674
G1 X215.691 Y129.74 E2.41126
G1 X216.201 Y130.124 E2.43249
G1 X216.841 Y130.704 E2.46122
G1 X217.17 Y131.057 E2.47727
G1 X217.737 Y131.789 E2.50806
G1 X218.159 Y132.461 E2.53446
G1 X218.48 Y133.1 E2.55824
G1 X218.766 Y133.816 E2.58388
G1 X218.922 Y134.327 E2.60165
G1 X219.096 Y135.149 E2.6296
G1 X219.178 Y135.883 E2.65416
G1 X219.158 Y137.313 E2.70173
G1 X219.106 Y137.708 E2.71498
G1 X218.872 Y138.746 E2.75037
G1 X218.727 Y139.194 E2.76603
G1 X218.318 Y140.143 E2.80041
G1 X218.107 Y140.532 E2.81512
G1 X217.552 Y141.371 E2.84858
G1 X217.229 Y141.77 E2.86566
G1 X216.586 Y142.437 E2.89647
G1 X216.151 Y142.812 E2.91557
G1 X215.524 Y143.266 E2.94132
G1 X214.769 Y143.708 E2.97042
G1 X214.186 Y143.981 E2.99183
G1 X213.092 Y144.399 E3.03078
G1 X208.398 Y144.399 E3.1869
G1 X207.466 Y144.17 E3.21883
G1 X206.469 Y143.654 E3.25616
G1 X205.766 Y142.899 E3.29048
G1 X205.176 Y141.908 E3.32884
G1 X205.063 Y141.23 E3.3517
G1 X202.823 Y141.861 E3.4291
G1 X201.678 Y141.768 E3.46731
G1 X201.044 Y141.582 E3.48928
G1 X200.962 Y141.92 E3.50085
G1 X200.443 Y142.921 E3.53835
G1 X199.688 Y143.621 E3.5726
G1 X198.697 Y144.212 E3.61097
G1 X197.717 Y144.374 E3.64401
G1 X192.613 Y144.399 E3.81377
G1 X191.602 Y144.156 E3.84836
G1 X191.078 Y143.909 E3.86762
G1 X190.217 Y143.26 E3.90349
G1 X189.652 Y142.755 E3.92869
G1 X189.073 Y142.143 E3.95671
G1 X188.462 Y142.77 E3.98583
G1 X188.022 Y143.146 E4.00508
G1 X187.429 Y143.573 E4.02938
G1 X186.649 Y144.023 E4.05933
G1 X186.07 Y144.293 E4.08058
G1 X185.005 Y144.7 E4.1185
G1 X180.308 Y144.7 E4.27473
G1 X179.376 Y144.471 E4.30665
G1 X178.379 Y143.955 E4.34399
G1 X177.676 Y143.2 E4.3783
G1 X177.086 Y142.21 E4.41663
G1 X176.932 Y141.286 E4.44778
G1 X175.069 Y141.81 E4.51215
G1 X173.926 Y141.717 E4.55029
G1 X173.056 Y141.462 E4.58045
G1 X172.869 Y142.222 E4.60648
G1 X172.353 Y143.219 E4.64382
G1 X171.598 Y143.922 E4.67813
G1 X170.607 Y144.513 E4.71651
G1 X169.627 Y144.675 E4.74954
G1 X164.523 Y144.7 E4.91931
G1 X163.512 Y144.457 E4.95389
G1 X162.988 Y144.21 E4.97316
G1 X162.127 Y143.561 E5.00902
G1 X161.562 Y143.056 E5.03422
G1 X161.081 Y142.55 E5.05744
G1 X160.593 Y141.942 E5.08337
G1 X160.229 Y141.402 E5.10503
G1 X159.778 Y140.582 E5.13616
G1 X159.53 Y140.024 E5.15647
G1 X159.243 Y139.184 E5.18599
G1 X159.071 Y138.488 E5.20984
G1 X158.972 Y137.896 E5.2298
G1 X158.902 Y136.946 E5.26149
G1 X158.904 Y136.489 E5.27669
G1 X158.997 Y135.42 E5.31237
G1 X159.085 Y134.936 E5.32874
G1 X159.343 Y133.986 E5.36148
G1 X159.554 Y133.411 E5.38185
G1 X159.866 Y132.739 E5.40649
G1 X160.306 Y131.973 E5.43587
G1 X160.593 Y131.556 E5.45271
G1 F1500 E-1.04729
G0 F6000 X167.045 Y128.447
G0 X169.951 Y128.447
G0 X169.951 Y135.653
G0 X165.433 Y136.442
G1 F1500 E5.45271
G1 F1200 X165.391 Y136.514 E5.45548
G1 X165.391 Y136.985 E5.47115
G1 X165.433 Y137.058 E5.47395
G1 X165.532 Y137.1 E5.47753
G1 X166.044 Y137.1 E5.49456
G1 X165.966 Y136.794 E5.50506
G1 X165.949 Y136.4 E5.51817
G1 X165.532 Y136.4 E5.53204
G1 X165.433 Y136.442 E5.53562
G0 F6000 X165.096 Y136.213
G1 F1200 X164.991 Y136.418 E5.54328
G1 X164.991 Y137.082 E5.56537
G1 X165.096 Y137.287 E5.57303
G1 X165.204 Y137.395 E5.57811
G1 X165.45 Y137.5 E5.587
G1 X166.626 Y137.5 E5.62612
G1 X166.52 Y137.299 E5.63368
G1 X166.366 Y136.775 E5.65184
G1 X166.348 Y136.39 E5.66466
G1 X166.461 Y136 E5.67816
G1 X165.45 Y136 E5.71179
G1 X165.204 Y136.105 E5.72069
G1 X165.096 Y136.213 E5.72577
G1 F1500 E-0.77423
G0 F6000 X184.244 Y136.418
G1 F1500 E5.72577
G1 F1200 X184.349 Y136.78 E5.7383
G1 X184.373 Y137.038 E5.74692
G1 X184.497 Y136.957 E5.75185
G1 X184.589 Y136.761 E5.75905
G1 X184.571 Y136.658 E5.76253
G1 X184.41 Y136.471 E5.77073
G1 X184.244 Y136.418 E5.77653
G0 F6000 X184.427 Y136.04
G1 F1200 X184.147 Y136 E5.78594
G1 X183.584 Y136 E5.80466
G1 X183.684 Y136.121 E5.80988
G1 X183.815 Y136.373 E5.81933
G1 X183.965 Y136.891 E5.83727
G1 X183.982 Y137.218 E5.84816
G1 X183.919 Y137.5 E5.85777
G1 X184.267 Y137.5 E5.86934
G1 X184.626 Y137.371 E5.88203
G1 X184.797 Y137.227 E5.88947
G1 X184.919 Y137.043 E5.89681
G1 X184.999 Y136.79 E5.90563
G1 X184.951 Y136.506 E5.91521
G1 X184.791 Y136.268 E5.92475
G1 X184.625 Y136.128 E5.93197
G1 X184.427 Y136.04 E5.93918
G1 F1500 E-0.56082
G0 F6000 X180.045 Y137.847
G0 X180.045 Y141.553
G0 X184.418 Y141.564
G0 X198.041 Y141.252
G0 X198.041 Y137.546
G0 X193.481 Y136.213
G1 F1500 E5.93918
G1 F1200 X193.481 Y136.683 E5.95481
G1 X193.523 Y136.756 E5.95761
G1 X193.625 Y136.799 E5.9613
G1 X193.846 Y136.799 E5.96865
G1 X193.722 Y136.377 E5.98328
G1 X193.709 Y136.099 E5.99253
G1 X193.523 Y136.141 E5.99887
G1 X193.481 Y136.213 E6.00165
G0 F6000 X193.081 Y136.117
G1 F1200 X193.186 Y135.912 E6.00931
G1 X193.294 Y135.804 E6.01439
G1 X193.54 Y135.699 E6.02328
G1 X194.167 Y135.699 E6.04414
G1 X194.104 Y135.973 E6.05349
G1 X194.12 Y136.311 E6.06474
G1 X194.273 Y136.833 E6.08284
G1 X194.471 Y137.199 E6.09668
G1 X193.544 Y137.199 E6.12751
G1 X193.294 Y137.093 E6.13654
G1 X193.186 Y136.985 E6.14162
G1 X193.081 Y136.779 E6.14931
G1 X193.081 Y136.117 E6.17133
G1 F1500 E-0.32867
G0 F6000 X211.801 Y136.099
G1 F1500 E6.17133
G1 F1200 X211.85 Y136.414 E6.18193
G1 X211.792 Y136.799 E6.19488
G1 X212.34 Y136.799 E6.21311
G1 X212.605 Y136.639 E6.2234
G1 X212.666 Y136.511 E6.22812
G1 X212.667 Y136.387 E6.23224
G1 X212.531 Y136.186 E6.24032
G1 X212.338 Y136.099 E6.24736
G1 X211.801 Y136.099 E6.26522
G0 F6000 X211.393 Y136.079
G1 F1200 X211.455 Y136.476 E6.27858
G1 X211.291 Y137.199 E6.30324
G1 X212.426 Y137.199 E6.34099
G1 X212.718 Y137.068 E6.35163
G1 X212.929 Y136.889 E6.36084
G1 X213.051 Y136.633 E6.37027
G1 X213.083 Y136.447 E6.37655
G1 X213.052 Y136.266 E6.38265
G1 X212.951 Y136.056 E6.39041
G1 X212.773 Y135.856 E6.39931
G1 X212.424 Y135.699 E6.41204
G1 X211.245 Y135.699 E6.45125
G1 X211.393 Y136.079 E6.46482
G1 F1500 E-0.03518
G0 F6000 X208.135 Y137.546
G0 X208.135 Y141.252
G0 X210.43 Y145.32
G1 F1500 E6.46482
G1 F1200 X212.689 Y145.3 E6.53995
G1 X213.612 Y145.525 E6.57155
G1 X214.617 Y146.045 E6.60919
G1 X215.32 Y146.8 E6.6435
G1 X215.911 Y147.791 E6.68188
G1 X216.073 Y148.771 E6.71491
G1 X216.086 Y149.225 E6.73002
G1 X216.321 Y149.32 E6.73845
G1 X216.997 Y149.663 E6.76366
G1 X217.577 Y150.022 E6.78635
G1 X217.986 Y150.322 E6.80322
G1 X218.751 Y151.005 E6.83733
G1 X219.08 Y151.358 E6.85338
G1 X219.625 Y152.058 E6.88289
G1 X220.07 Y152.763 E6.91061
G1 X220.392 Y153.403 E6.93444
G1 X220.676 Y154.115 E6.95994
G1 X220.826 Y154.607 E6.97705
G1 X221.016 Y155.509 E7.00771
G1 X221.086 Y156.135 E7.02866
G1 X221.068 Y157.614 E7.07785
G1 X221.016 Y158.01 E7.09114
G1 X220.782 Y159.047 E7.12649
G1 X220.637 Y159.495 E7.14216
G1 X220.238 Y160.421 E7.17569
G1 X219.92 Y160.993 E7.19746
G1 X219.466 Y161.665 E7.22443
G1 X219.025 Y162.199 E7.24747
G1 X218.462 Y162.77 E7.27414
G1 X218.022 Y163.146 E7.29339
G1 X217.429 Y163.573 E7.31769
G1 X216.649 Y164.023 E7.34764
G1 X216.07 Y164.293 E7.36889
G1 X215.005 Y164.7 E7.40681
G1 X210.308 Y164.7 E7.56303
G1 X209.376 Y164.471 E7.59496
G1 X208.379 Y163.955 E7.63229
G1 X207.676 Y163.2 E7.66661
G1 X207.124 Y162.274 E7.70246
G1 X207.034 Y161.895 E7.71542
G1 X205.222 Y162.402 E7.778
G1 X204.058 Y162.483 E7.81681
G1 X202.908 Y162.147 E7.85666
G1 X202.353 Y163.219 E7.89681
G1 X201.598 Y163.922 E7.93112
G1 X200.607 Y164.513 E7.96949
G1 X199.627 Y164.675 E8.00253
G1 X194.523 Y164.7 E8.17229
G1 X193.512 Y164.457 E8.20688
G1 X192.988 Y164.21 E8.22615
G1 X192.127 Y163.561 E8.26201
G1 X191.562 Y163.056 E8.28721
G1 X191.081 Y162.55 E8.31043
G1 X190.593 Y161.942 E8.33636
G1 X190.229 Y161.402 E8.35802
G1 X189.962 Y160.919 E8.37638
G1 X189.466 Y161.665 E8.40617
G1 X189.025 Y162.199 E8.42921
G1 X188.462 Y162.77 E8.45588
G1 X188.022 Y163.146 E8.47513
G1 X187.429 Y163.573 E8.49943
G1 X186.649 Y164.023 E8.52938
G1 X186.07 Y164.293 E8.55063
G1 X185.005 Y164.7 E8.58855
G1 X180.449 Y164.7 E8.74009
G1 X180.5 Y165.315 E8.76061
G1 X182.691 Y165.3 E8.83349
G1 X183.612 Y165.525 E8.86502
G1 X184.617 Y166.045 E8.90265
G1 X185.32 Y166.8 E8.93697
G1 X185.911 Y167.791 E8.97534
G1 X186.073 Y168.771 E9.00838
G1 X186.086 Y169.225 E9.02349
G1 X186.321 Y169.32 E9.03192
G1 X186.997 Y169.663 E9.05713
G1 X187.577 Y170.022 E9.07982
G1 X187.986 Y170.322 E9.09669
G1 X188.751 Y171.005 E9.1308
G1 X189.08 Y171.358 E9.14685
G1 X189.625 Y172.058 E9.17635
G1 X189.957 Y172.581 E9.19696
G1 X190.306 Y171.973 E9.22027
G1 X190.593 Y171.556 E9.23711
G1 X191.192 Y170.825 E9.26854
G1 X191.653 Y170.355 E9.29044
G1 X192.232 Y169.852 E9.31595
G1 X192.962 Y169.313 E9.34613
G1 X193.898 Y168.92 E9.3799
G1 X193.91 Y168.661 E9.38852
G1 X194.127 Y167.778 E9.41876
G1 X194.643 Y166.781 E9.4561
G1 X195.398 Y166.078 E9.49041
G1 X196.39 Y165.487 E9.52882
G1 X197.43 Y165.32 E9.56385
G1 X199.689 Y165.3 E9.63899
G1 X200.612 Y165.525 E9.67059
G1 X201.617 Y166.045 E9.70822
G1 X202.32 Y166.8 E9.74253
G1 X202.911 Y167.791 E9.78091
G1 X202.974 Y168.173 E9.79379
G1 X204.703 Y167.69 E9.8535
G1 X205.83 Y167.608 E9.89108
G1 X207.082 Y167.96 E9.93434
G1 X207.148 Y167.737 E9.94207
G1 X207.643 Y166.781 E9.97788
G1 X208.398 Y166.078 E10.01219
G1 X209.39 Y165.487 E10.0506
G1 X210.43 Y165.32 E10.08563
G1 X212.689 Y165.3 E10.16077
G1 X213.612 Y165.525 E10.19236
G1 X214.617 Y166.045 E10.23
G1 X215.32 Y166.8 E10.26431
G1 X215.911 Y167.791 E10.30269
G1 X216.073 Y168.771 E10.33573
G1 X216.086 Y169.225 E10.35083
G1 X216.321 Y169.32 E10.35926
G1 X216.997 Y169.663 E10.38448
G1 X217.577 Y170.022 E10.40716
G1 X217.986 Y170.322 E10.42403
G1 X218.751 Y171.005 E10.45814
G1 X219.08 Y171.358 E10.47419
G1 X219.625 Y172.058 E10.5037
G1 X220.07 Y172.763 E10.53143
G1 X220.392 Y173.403 E10.55526
G1 X220.676 Y174.115 E10.58075
G1 X220.826 Y174.607 E10.59786
G1 X221.016 Y175.509 E10.62852
G1 X221.086 Y176.135 E10.64947
G1 X221.068 Y177.614 E10.69866
G1 X221.016 Y178.01 E10.71195
G1 X220.782 Y179.047 E10.74731
G1 X220.637 Y179.495 E10.76297
G1 X220.238 Y180.421 E10.7965
G1 X219.92 Y180.993 E10.81827
G1 X219.466 Y181.665 E10.84525
G1 X219.025 Y182.199 E10.86828
G1 X218.462 Y182.77 E10.89495
G1 X218.022 Y183.146 E10.9142
G1 X217.429 Y183.573 E10.93851
G1 X216.649 Y184.023 E10.96846
G1 X216.07 Y184.293 E10.9897
G1 X215.005 Y184.7 E11.02762
G1 X213.099 Y184.7 E11.09102
G1 X213.573 Y185.209 E11.11415
G1 X214.164 Y186.2 E11.15253
G1 X214.326 Y187.18 E11.18557
G1 X214.338 Y187.61 E11.19987
G1 X215.225 Y188.056 E11.23289
G1 X215.814 Y188.424 E11.25599
G1 X216.329 Y188.807 E11.27734
G1 X217.013 Y189.427 E11.30805
G1 X217.433 Y189.884 E11.32869
G1 X217.879 Y190.466 E11.35308
G1 X218.303 Y191.137 E11.37948
G1 X218.643 Y191.81 E11.40456
G1 X218.929 Y192.526 E11.4302
G1 X219.085 Y193.037 E11.44797
G1 X219.259 Y193.859 E11.47592
G1 X219.341 Y194.593 E11.50048
G1 X219.327 Y195.93 E11.54495
G1 X219.241 Y196.566 E11.5663
G1 X219.068 Y197.328 E11.59229
G1 X218.788 Y198.165 E11.62164
G1 X218.494 Y198.823 E11.64561
G1 X218.232 Y199.302 E11.66377
G1 X217.715 Y200.081 E11.69487
G1 X217.392 Y200.48 E11.71194
G1 X216.754 Y201.143 E11.74255
G1 X216.371 Y201.476 E11.75943
G1 X215.505 Y202.093 E11.79479
G1 X214.892 Y202.439 E11.8182
G1 X214.367 Y202.682 E11.83745
G1 X213.249 Y203.109 E11.87725
G1 X208.561 Y203.109 E12.03317
G1 X207.629 Y202.88 E12.06509
G1 X206.632 Y202.364 E12.10243
G1 X205.929 Y201.609 E12.13674
G1 X205.338 Y200.618 E12.17512
G1 X205.176 Y199.638 E12.20816
G1 X205.168 Y199.35 E12.21774
G1 X205.019 Y199.426 E12.2233
G1 X202.595 Y200.104 E12.30702
G1 X201.502 Y200.18 E12.34346
G1 X201.246 Y200.131 E12.35213
G1 X201.126 Y200.629 E12.36917
G1 X200.606 Y201.631 E12.40672
G1 X199.851 Y202.331 E12.44096
G1 X198.86 Y202.922 E12.47934
G1 X197.88 Y203.084 E12.51237
G1 X192.771 Y203.109 E12.6823
G1 X191.686 Y202.83 E12.71956
G1 X191.301 Y202.665 E12.73349
G1 X190.328 Y201.929 E12.77407
G1 X189.68 Y201.345 E12.80309
G1 X189.491 Y201.632 E12.81452
G1 X189.049 Y202.173 E12.83775
G1 X188.462 Y202.77 E12.8656
G1 X188.022 Y203.146 E12.88485
G1 X187.429 Y203.573 E12.90915
G1 X186.649 Y204.023 E12.9391
G1 X186.07 Y204.293 E12.96035
G1 X185.005 Y204.7 E12.99827
G1 X180.308 Y204.7 E13.1545
G1 X179.376 Y204.471 E13.18642
G1 X178.379 Y203.955 E13.22375
G1 X177.676 Y203.2 E13.25807
G1 X177.124 Y202.274 E13.29392
G1 X177.046 Y201.971 E13.30433
G1 X175.912 Y202.05 E13.34214
G1 X173.904 Y201.457 E13.41177
G1 X173.041 Y201.519 E13.44055
G1 X172.873 Y202.22 E13.46453
G1 X172.353 Y203.222 E13.50207
G1 X171.598 Y203.922 E13.53632
G1 X170.607 Y204.513 E13.5747
G1 X169.627 Y204.675 E13.60773
G1 X164.523 Y204.7 E13.77749
G1 X163.512 Y204.457 E13.81208
G1 X162.988 Y204.21 E13.83135
G1 X162.127 Y203.561 E13.86721
G1 X161.562 Y203.056 E13.89241
G1 X161.081 Y202.55 E13.91563
G1 X160.593 Y201.942 E13.94156
G1 X160.229 Y201.402 E13.96322
G1 X159.778 Y200.582 E13.99435
G1 X159.53 Y200.024 E14.01466
G1 X159.243 Y199.184 E14.04418
G1 X159.071 Y198.488 E14.06803
G1 X158.972 Y197.896 E14.08799
G1 X158.902 Y196.946 E14.11967
G1 X158.904 Y196.489 E14.13487
G1 X158.997 Y195.42 E14.17056
G1 X159.085 Y194.936 E14.18692
